X:25
T:Mary Brennan's Favourite
R:fling
D:Catherine McEvoy, Caoimh\'in \'O Raghallaigh & M\'iche\'al \'O Raghallaigh
Z:id:hn-hf-25
M:C|
L:1/8
K:G
B2BA BcdB | A2AG Addc | B2BA BcdB | AG (3EDE G2G2 :|
|: GED2 EFGB | AGEF GBdc | BD~D2 EFGB | AG (3EDE G2G2 :|

